!!!COM: Béla Bartók
!!!OTL: [T352_Bar-w33p37h26m1-h27m7]
**kern	**dynam	**kern	**dynam	**kern	**dynam	**kern	**dynam	**kern	**dynam	**kern	**dynam	**kern	**dynam	**kern	**dynam
*grp:A	*grp:A	*grp:A	*grp:A	*grp:A	*grp:A	*grp:B	*grp:B	*grp:A	*grp:A	*grp:A	*grp:A	*grp:B	*grp:B	*grp:B	*grp:B
*part8	*part8	*part7	*part7	*part6	*part6	*part5	*part5	*part4	*	*part3	*	*part2	*part2	*part1	*part1
*staff8	*	*staff7	*	*staff6	*	*staff5	*	*staff4	*	*staff3	*	*staff2	*	*staff1	*
*I"Contrabass	*	*I"Violoncello	*	*I"Viola	*	*I"Violin solo	*	*I"Horn in F	*	*I"Bassoon I. II	*	*I"Clarinet in A I. II	*	*I"Oboe I. II	*
*I'Cb.	*	*I'Vc.	*	*I'Vla.	*	*I'Vc.	*	*I'Hn.	*	*I'Bsn.	*	*I'Cl.	*	*I'Ob.	*
!!pagebreak:original
*clefF4	*	*clefF4	*	*clefC3	*	*clefG2	*	*clefG2	*	*clefF4	*	*clefG2	*	*clefG2	*
*ITrd0c0	*	*	*	*	*	*	*	*ITrd4c7	*	*	*	*ITrd2c3	*	*	*
*k[f#c#]	*	*k[f#c#]	*	*k[f#c#]	*	*k[f#c#]	*	*k[b-]	*	*k[f#c#]	*	*k[f#c#]	*	*k[f#c#]	*
*D:	*	*D:	*	*D:	*	*D:	*	*F:	*	*D:	*	*D:	*	*D:	*
*M2/4	*	*M2/4	*	*M2/4	*	*M2/4	*	*M2/4	*	*M2/4	*	*M2/4	*	*M2/4	*
!!LO:REH:t=26
=129	=129	=129	=129	=129	=129	=129	=129	=129	=129	=129	=129	=129	=129	=129	=129
*	*	*	*	*	*	*	*	*	*	*^	*	*^	*	*^	*
!	!	!	!	!	!	!LO:TX:t=P:problem: Cross-Measure beaming still needs to be applied.	!	!	!	!	!	!	!	!	!	!LO:TX:t=[[quarter]=168]	!	!
!LO:TX:b:t=[meno]	!LO:DY:ed=brack	!LO:TX:b:t=[meno]	!LO:DY:ed=brack	!LO:TX:b:t=[meno]	!LO:DY:ed=brack	!LO:TX:b:t=[sempre]	!LO:DY:ed=brack	!	!LO:DY:ed=brack	!	!	!LO:DY:ed=brack	!	!	!LO:DY:ed=brack	!LO:TX:t=P:problem: Cross-Measure beaming still needs to be applied.	!	!LO:DY:ed=brack
8FF#L 8BB	f	8FF#L 8BB	f	8F#L 8B	f	4ee	ff	2G-X 2c-X	p	2BB	2r	p	2e_	2r	p	(8cc#:L	2r	f
8FF#J 8BB	.	8FF#J 8BB	.	8F#J 8B	.	.	.	.	.	.	.	.	.	.	.	8f#)	.	.
4r	.	4r	.	4r	.	((8aaL	.	.	.	.	.	.	.	.	.	8eJ	.	.
.	.	.	.	.	.	8gg#X)	.	.	.	.	.	.	.	.	.	[8f#L	.	.
=130	=130	=130	=130	=130	=130	=130	=130	=130	=130	=130	=130	=130	=130	=130	=130	=130	=130	130
8AA#XL	.	8EE#XL 8AA#X	.	8E#XL 8A#X	.	8dd'J)	.	2F 2B-	.	2AA#X	2r	.	2e_	2r	.	8f#J]	2r	.
8AA#J	.	8EE#J 8AA#	.	8E#J 8A#	.	4ee	.	.	.	.	.	.	.	.	.	(8bL	.	.
4r	.	4r	.	4r	.	.	.	.	.	.	.	.	.	.	.	8a#X)	.	.
.	.	.	.	.	.	((8ggnL	.	.	.	.	.	.	.	.	.	8eJ	.	.
=131	=131	=131	=131	=131	=131	=131	=131	=131	=131	=131	=131	=131	=131	=131	=131	=131	=131	=131
8FF#L 8BB	.	8FF#L 8BB	.	8F#L 8B	.	8ff#)	.	2G-X 2c-X	.	2BB	2r	.	2e]	2r	.	4f#	2r	.
8FF#J 8BB	.	8FF#J 8BB	.	8F#J 8B	.	8dd'J)	.	.	.	.	.	.	.	.	.	.	.	.
4r	.	4r	.	4r	.	4ee	.	.	.	.	.	.	.	.	.	(8anL	.	.
.	.	.	.	.	.	.	.	.	.	.	.	.	.	.	.	8g#X)	.	.
=132	=132	=132	=132	=132	=132	=132	=132	=132	=132	=132	=132	=132	=132	=132	=132	=132	=132	=132
8AA#XL	.	8EE#XL 8AA#X	.	8E#XL 8A#X	.	((8ffnL	.	2F 2B-	.	2AA#X	2r	.	([2e	2r	.	8eJ	2r	.
8AA#J	.	8EE#J 8AA#	.	8E#J 8A#	.	8dd#X)	.	.	.	.	.	.	.	.	.	4f#	.	.
4r	.	4r	.	4r	.	8ff'J)	.	.	.	.	.	.	.	.	.	.	.	.
.	.	.	.	.	.	[8eeL	.	.	.	.	.	.	.	.	.	(8gnL	.	.
=133	=133	=133	=133	=133	=133	=133	=133	=133	=133	=133	=133	=133	=133	=133	=133	=133	=133	=133
8FF#L 8BB	.	8FF#L 8BB	.	8F#L 8B	.	8eeJ]	.	2G-X 2c-X	.	2BB	2r	.	2e_	2r	.	8e#X)	2r	.
8FF#J 8BB	.	8FF#J 8BB	.	8F#J 8B	.	((8ffnL	.	.	.	.	.	.	.	.	.	8gnJ	.	.
4r	.	4r	.	4r	.	8dd#X)	.	.	.	.	.	.	.	.	.	4f#	.	.
.	.	.	.	.	.	8ff'J)	.	.	.	.	.	.	.	.	.	.	.	.
=134	=134	=134	=134	=134	=134	=134	=134	=134	=134	=134	=134	=134	=134	=134	=134	=134	=134	=134
8AA#XL	.	8EE#XL 8AA#X	.	8E#XL 8A#X	.	4.ee	.	2F 2B-	.	2AA#X	2r	.	2e_	2r	.	(8gnL	2r	.
8AA#J	.	8EE#J 8AA#	.	8E#J 8A#	.	.	.	.	.	.	.	.	.	.	.	8e#X)	.	.
4r	.	4r	.	4r	.	.	.	.	.	.	.	.	.	.	.	8gJ	.	.
.	.	.	.	.	.	((8ffnL	.	.	.	.	.	.	.	.	.	[8f#L	.	.
=135	=135	=135	=135	=135	=135	=135	=135	=135	=135	=135	=135	=135	=135	=135	=135	=135	=135	=135
8FF#L 8BB	.	8FF#L 8BB	.	8F#L 8B	.	8dd#X)	.	2G-X 2c-X	.	2BB	2r	.	4.e]	2r	<	8f#J]	2r	.
8FF#J 8BB	.	8FF#J 8BB	.	8F#J 8B	.	8ffn'J)	.	.	.	.	.	.	.	.	.	(8gnL	.	.
4r	.	4r	.	4r	.	4ee	.	.	.	.	.	.	.	.	.	8e#X)	.	>
.	.	.	.	.	.	.	.	.	.	.	.	.	8e#X)	.	[	8gJ	.	]
!!LO:REH:t=27
=136	=136	=136	=136	=136	=136	=136	=136	=136	=136	=136	=136	=136	=136	=136	=136	=136	=136	=136
!	!	!	!	!	!	!	!	!	!	!	!	!	!LO:TX:t=P:problem: Cross-Measure beaming still needs to be applied.	!	!	!	!	!
8AA#XL	.	8EE#XL 8AA#X	.	8E#XL 8A#X	.	((8fnL	.	2F 2B-	.	2AA#X	2r	.	4.f#	2r	f	8f#	2r	p
8AA#J	.	8EE#J 8AA#	.	8E#J 8A#	.	8d#X)	.	.	.	.	.	.	.	.	.	8r	.	.
4r	.	4r	.	4r	.	8f'J)	.	.	.	.	.	.	.	.	.	4r	.	.
.	.	.	.	.	.	8eL	.	.	.	.	.	.	(8gXL	.	.	.	.	.
*	*	*	*	*	*	*	*	*	*	*	*	*	*	*	*	*v	*v	*
=137	=137	=137	=137	=137	=137	=137	=137	=137	=137	=137	=137	=137	=137	=137	=137	=137	=137
8FF#L 8BB	.	8FF#L 8BB	.	8F#L 8B	.	8eJ	.	[2C-X [2G-X	.	4r	2r	.	8e#X)	2r	.	2r	.
8FF#J 8BB	.	8FF#J 8BB	.	8F#J 8B	.	((8e-XL	.	.	.	.	.	.	8gXJ	.	.	.	.
4r	.	4r	.	4r	.	8c#X)	.	.	.	8FF#	.	.	4f#	.	.	.	.
.	.	.	.	.	.	8e-'J)	.	.	.	8r	.	.	.	.	.	.	.
=138	=138	=138	=138	=138	=138	=138	=138	=138	=138	=138	=138	=138	=138	=138	=138	=138	=138
8FF#L 8BB	.	8FF#L 8BB	.	8F#L	.	8d	.	2C-_ 2G-_	.	4r	2r	.	(8fXL	2r	.	2r	.
8FF#J 8BB	.	8FF#J 8BB	.	8F#J	.	((8d-XL	.	.	.	.	.	.	8d#)	.	.	.	.
4r	.	4r	.	4r	.	8Bn)	.	.	.	8FF#	.	.	8fJ	.	.	.	.
.	.	.	.	.	.	8d-'J)	.	.	.	8r	.	.	8e	.	.	.	.
*	*	*	*	*	*	*	*	*	*	*v	*v	*	*	*	*	*	*
*	*	*	*	*	*	*	*	*	*	*	*	*v	*v	*	*	*
!!linebreak:original
=139	=139	=139	=139	=139	=139	=139	=139	=139	=139	=139	=139	=139	=139	=139	=139
*M3/4	*	*M3/4	*	*M3/4	*	*M3/4	*	*M3/4	*	*M3/4	*	*M3/4	*	*M3/4	*
8FF#L 8BB	.	8FF#L 8BB	.	8F#L	.	(8cnL	.	2.C-X_ 2.G-X_	.	4r	.	(8e-XL	.	4%3r	.
8FF#J 8BB	.	8FF#J 8BB	.	8F#J	.	8A#XJ)	.	.	.	.	.	8c#Z)	.	.	.
4r	.	4r	.	4r	.	((8BL	.	.	.	4.FF#	.	8e-J	.	.	.
.	.	.	.	.	.	8An)	.	.	.	.	.	(8dL	.	.	.
4r	.	4r	.	4r	.	8B'J)	.	.	.	.	.	8B#XJ)	.	.	.
.	.	.	.	.	.	(8B-XL	.	.	.	8r	.	(8c#L	.	.	.
=140	=140	=140	=140	=140	=140	=140	=140	=140	=140	=140	=140	=140	=140	=140	=140
8FF#L 8BB	.	8FF#L 8BB	.	8F#L	.	8G#XJ)	.	2.C-_ 2.G-_	.	4r	.	8Bn)	.	4%3r	.
8FF#J 8BB	.	8FF#J 8BB	.	8F#J	.	((8AL	.	.	.	.	.	8c#J	.	.	.
4r	.	4r	.	4r	.	8Gn)	.	.	.	4.FF#	.	(8cXL	.	.	.
.	.	.	.	.	.	8A'J)	.	.	.	.	.	8A#XJ)	.	.	.
4r	.	4r	.	4r	.	4G#X	.	.	.	.	.	(8BL	.	.	.
.	.	.	.	.	.	.	.	.	.	8r	.	8G##X)	.	.	.
=141	=141	=141	=141	=141	=141	=141	=141	=141	=141	=141	=141	=141	=141	=141	=141
8FF#L 8BB	.	8FF#L 8BB	.	8F#L	.	((8BL	.	2.C-_ 2.G-_	.	4r	.	8BnJ	.	4%3r	.
8FF#J 8BB	.	8FF#J 8BB	.	8F#J	.	8An)	.	.	.	.	.	4A#X	.	.	.
4r	.	4r	.	4r	.	8B'J)	.	.	.	4.FF#	.	.	.	.	.
.	.	.	.	.	.	(8B-XL	.	.	.	.	.	(8c#L	.	.	.
4r	.	4r	.	4r	.	8G#XJ)	.	.	.	.	.	8B)	.	.	.
.	.	.	.	.	.	(8BnL	.	.	.	8r	.	8c#J	.	.	.
=142	=142	=142	=142	=142	=142	=142	=142	=142	=142	=142	=142	=142	=142	=142	=142
*M2/4	*	*M2/4	*	*M2/4	*	*M2/4	*	*M2/4	*	*M2/4	*	*M2/4	*	*M2/4	*
8FF#L 8BB	.	8FF#L 8BB	.	8F#L	.	8AJ)	.	2C-] 2G-]	.	4r	.	(8cXL	.	2r	.
8FF#J 8BB	.	8FF#J 8BB	.	8F#J	.	(8B-XL	.	.	.	.	.	8A#XJ)	.	.	.
4r	.	4r	.	4r	.	8G#X	.	.	.	8FF#	.	(8BL	.	.	.
.	.	.	.	.	.	8B-'J)	.	.	.	8r	.	8AJ)	.	.	.
=	=	=	=	=	=	=	=	=	=	=	=	=	=	=	=
*-	*-	*-	*-	*-	*-	*-	*-	*-	*-	*-	*-	*-	*-	*-	*-
!!!system-decoration: [(s1,s2,s3)][(s4)](s5)[(s6,s7,s8)]
!!!RDF**kern: i = editorial accidental
!!!RDF**kern: j = editorial accidental, bracket
!!!RDF**kern: Z = editorial accidental, parentheses
!!!EED: Daniel Wright
!!!EEV: 2021/07/14
